X:24
T:Lord Huntley's Cave
M:4/4
L:1/8
R:March
K:D
C:J. Scott Skinner
d/e/|"D"fA "G"g/f/e/d/ "D"fA dc/d/|"A"eA a/g/f/e/ "D"d/c/d/f/ "A"e/A/d/e
/|
"D"fA "G"g/f/e/d/ "D"fA dc/d/|"A"e/a/c/a/ A/a/c/a/ "D"d2 d:|
|:f/g/|"D"a>fda f/A/a dc/d/|"A"eA a/g/f/e/ "D"d/c/d/f/ "A"e/A/f/g/|
"D"a>fda f/A/a dc/d/|"A"e/a/c/a/ A/a/c/a/ "D"d2 d:|
